scripts/debs/qogir-icon-theme/usr/share/icons/Qogir/scalable/apps/tangram.svg

<svg width="64" height="64" version="1.1" xmlns="http://www.w3.org/2000/svg">
 <path d="m9.9975 6.0011a3.9867 3.9865 0 0 0-2.8297 1.1689l31.33 48.661 18.33-48.661a3.9867 3.9865 0 0 0-2.8307-1.17z" fill="#33d17a" stroke="#000000" stroke-linecap="round" stroke-linejoin="round" stroke-opacity=".2"/>
 <path d="m7.17 7.1711a3.9867 3.9865 0 0 0-1.17 2.8328v43.998a3.9867 3.9865 0 0 0 1.17 2.8317l48.663-3.1643-23.833-21.666z" fill="#5799e9" stroke="#000000" stroke-linecap="round" stroke-linejoin="round" stroke-opacity=".2"/>
 <path d="m56.829 7.1711-11.831 11.833 4.3333 8.6663 8.6667 4.3331v-22.002a3.9867 3.9865 0 0 0-1.1689-2.8306z" fill="#837f8a" stroke="#000000" stroke-linecap="round" stroke-linejoin="round" stroke-opacity=".2"/>
 <path d="m31.999 32 13-13 12.999 13.002-10.834 19.5z" fill="#f8db51" stroke="#000000" stroke-linecap="round" stroke-linejoin="round" stroke-opacity=".2" style="paint-order:normal"/>
 <path d="m57.999 32-26.001 26h22a3.991 3.9908 0 0 0 4.0018-3.9995z" fill="#b78860" stroke="#000000" stroke-linecap="round" stroke-linejoin="round" stroke-opacity=".2"/>
 <path d="m45 44.999h-26.001l13-12.999z" fill="#ff9536" stroke="#000000" stroke-linecap="round" stroke-linejoin="round" stroke-opacity=".2"/>
 <path d="m18.999 44.999-11.831 11.833a3.9867 3.9865 0 0 0 2.8297 1.1667h22.002l13-12.999z" fill="#f65960" stroke="#000000" stroke-linecap="round" stroke-linejoin="round" stroke-opacity=".2"/>
</svg>

<svg xmlns="http://www.w3.org/2000/svg" width="64" height="64"><path fill="#33d17a" stroke="#000" stroke-linecap="round" stroke-linejoin="round" stroke-opacity=".2" d="M9.998 6.001a3.99 3.99 0 0 0-2.83 1.169l31.33 48.661L56.828 7.17A3.99 3.99 0 0 0 53.998 6z"/><path fill="#5799e9" stroke="#000" stroke-linecap="round" stroke-linejoin="round" stroke-opacity=".2" d="M7.17 7.171A3.99 3.99 0 0 0 6 10.004v43.998a3.99 3.99 0 0 0 1.17 2.832l48.663-3.165L32 32.003z"/><path fill="#837f8a" stroke="#000" stroke-linecap="round" stroke-linejoin="round" stroke-opacity=".2" d="M56.829 7.171 44.998 19.004l4.333 8.666 8.667 4.333v-22a3.99 3.99 0 0 0-1.169-2.831z"/><path fill="#f8db51" stroke="#000" stroke-linecap="round" stroke-linejoin="round" stroke-opacity=".2" d="m31.999 32 13-13 12.999 13.002-10.834 19.5z" style="paint-order:normal"/><path fill="#b78860" stroke="#000" stroke-linecap="round" stroke-linejoin="round" stroke-opacity=".2" d="M57.999 32 31.998 58h22A3.99 3.99 0 0 0 58 54z"/><path fill="#ff9536" stroke="#000" stroke-linecap="round" stroke-linejoin="round" stroke-opacity=".2" d="M45 44.999H18.999l13-12.999z"/><path fill="#f65960" stroke="#000" stroke-linecap="round" stroke-linejoin="round" stroke-opacity=".2" d="M18.999 44.999 7.168 56.832a3.99 3.99 0 0 0 2.83 1.167H32l13-13z"/></svg>
